X: 25714
T: Mary Cotter
R: jig
M: 6/8
K: Amajor
e|:aec A2 F|GAB d2 B|cec Ace|dBB Bce|
aec A2 F|GAB d2 B|cec BdB|cAA A2e:|
|:f2 a fec|BdB c2 B|ABc eae|fee e2a|
[1 faf fec|BdB c2 B|ABc BeB|cAA A2 a:|
[2 (f/g/a)g fec|aec d2 f|eac BeB|cAA A2||

